X:55
T:Robbie Hannan's
R:jig
M:6/8
K:Dmix
AG||"D"F2D DAG|~A3 GEA|~D3 AGE|~F2D DAG|
"D"F2A "G"~G3|"Am"AGA cde|dcA GEA|1 ~D3 DAG:|2 ~D3
DAB||
"D7"c2A AGF|"G"~G3 GFG|"D"~A2d cAG|Adc d2e|
fed cAG|F2A "Em"GEA|"Am"dcA GEA|1 ~D3 DAB:|2 ~D3 DAG||
